X:1
Q:1/4=70
L:1/8
M:1/4
K:C clef=G2
V:1
%%MIDI program 75
C7/8z/8F-|F3/8z/8G7/16A7/8z/8|G7/8z/8F-|F3/8z/8^A7/16A7/8z/8|
^A7/8z/8c-|c3/8z/8d7/16^A7/8z/8|d7/8z/8c-|c3/2-(5:4c/4z/2|
^A7/8z/8c-|c3/8z/8d7/16c7/8z/8|^A7/8z/8A-|A3/8z/8G7/16F7/8z/8|
G7/8z/8A7/8z/8|c7/8z/8A7/8z/8|G7/16F7/16G-|G3/2-(5:4G/4z/2|
C7/8z/8F-|F3/8z/8G7/16A7/8z/8|G7/8z/8c-|c3/2-(5:4c/4z/2|
^A7/8z/8d-|d3/8z/8c7/16^A7/8z/8|A7/8z/8G-|G3/2-(5:4G/4z/2|
G7/8z/8A7/8z/8|^A7/8z/8c7/8z/8|^A7/8z/8A-|A3/8z/8G7/16F7/8z/8|
G7/8z/8A7/8z/8|c7/8z/8A7/8z/8|G7/8z/8F-|F3/2-(5:4F/4z/2|
f7/8z/8f-|f3/8z/8d7/16c7/8z/8|d7/8z/8f-|f3/8z/8d7/16d7/8z/8|
g7/8z/8f7/8z/8|d7/8z/8c7/8z/8|A7/8z/8c-|c3/2-(5:4c/4z/2|
A7/16G7/16F-|F3/8z/8F7/16F7/8z/8|F7/8z/8F-|F3/8z/8G7/16A7/8z/8|
G7/8z/8F7/8z/8|c7/8z/8c7/8z/8|c7/8z/8c-|c3/2-(5:4c/4z/2|
A7/16c7/16d-|d3/8z/8f7/16d7/8z/8|c7/16c7/16A-|A3/8z/8d7/16c7/8z/8|
A7/8z/8G-|G3/8z/8F7/16D7/8z/8|C7/8z/8F-|F3/2-(5:4F/4
L:1/8
M:1/4
K:C clef=G2
V:2
%%MIDI program 74
C7/8z/8F-|F3/8z/8G7/16A7/8z/8|G7/8z/8F-|F3/8z/8^A7/16A7/8z/8|
^A7/8z/8c-|c3/8z/8d7/16^A7/8z/8|d7/8z/8c-|c3/2-(5:4c/4z/2|
^A7/8z/8c-|c3/8z/8d7/16c7/8z/8|^A7/8z/8A-|A3/8z/8G7/16F7/8z/8|
G7/8z/8A7/8z/8|c7/8z/8A7/8z/8|G7/16F7/16G-|G3/2-(5:4G/4z/2|
C7/8z/8F-|F3/8z/8G7/16A7/8z/8|G7/8z/8c-|c3/2-(5:4c/4z/2|
^A7/8z/8d-|d3/8z/8c7/16^A7/8z/8|A7/8z/8G-|G3/2-(5:4G/4z/2|
G7/8z/8A7/8z/8|^A7/8z/8c7/8z/8|^A7/8z/8A-|A3/8z/8G7/16F7/8z/8|
G7/8z/8A7/8z/8|c7/8z/8A7/8z/8|G7/8z/8F-|F3/2-(5:4F/4z/2|
f7/8z/8f-|f3/8z/8d7/16c7/8z/8|d7/8z/8f-|f3/8z/8d7/16d7/8z/8|
g7/8z/8f7/8z/8|d7/8z/8c7/8z/8|A7/8z/8c-|c3/2-(5:4c/4z/2|
A7/16G7/16F-|F3/8z/8F7/16F7/8z/8|F7/8z/8F-|F3/8z/8G7/16A7/8z/8|
G7/8z/8F7/8z/8|c7/8z/8c7/8z/8|c7/8z/8c-|c3/2-(5:4c/4z/2|
A7/16c7/16d-|d3/8z/8f7/16d7/8z/8|c7/16c7/16A-|A3/8z/8d7/16c7/8z/8|
A7/8z/8G-|G3/8z/8F7/16D7/8z/8|C7/8z/8F-|F3/2-(5:4F/4
L:1/8
M:1/4
K:C clef=F4
V:3
%%MIDI program 43
zC,-|C,2-C,|zC,-|C,2-(5:3C,|
zC,-|C,2-C,|zC,-|C,3/2-(5:4C,/4z/2|
zC,-|C,2-(5:3C,|zC,-|C,2-C,|
zC,-|C,2-(5:3C,|zC,-|C,2-C,|
zC,-|C,2-(5:3C,|zC,-|C,2-C,|
zC,-|C,2-(5:3C,|zC,-|C,2-C,|
zC,-|C,2-(5:3C,|zC,-|C,2-C,|
zC,-|C,2-(5:3C,|zC,-|C,2-C,|
zC,-|C,2-(5:3C,|zC,-|C,2-C,|
zC,-|C,2-(5:3C,|zC,-|C,2-C,|
zC,-|C,2-(5:3C,|zC,-|C,2-C,|
zC,-|C,2-(5:3C,|zC,-|C,3/2-C,/4(5:3z/2|
zC,-|C,2-C,|zC,-|C,2-(5:3C,|
zC,-|C,2-C,|zC,-|C,3/2-(5:4C,/4
L:1/8
M:1/4
K:C clef=F4
V:4
%%MIDI program 43
zF,,-|F,,2-F,,|zF,,-|F,,2-(5:3F,,|
zF,,-|F,,2-F,,|zF,,-|F,,3/2-(5:4F,,/4z/2|
zF,,-|F,,2-(5:3F,,|zF,,-|F,,2-F,,|
zF,,-|F,,2-(5:3F,,|zF,,-|F,,2-F,,|
zF,,-|F,,2-(5:3F,,|zF,,-|F,,2-F,,|
zF,,-|F,,2-(5:3F,,|zF,,-|F,,2-F,,|
zF,,-|F,,2-(5:3F,,|zF,,-|F,,2-F,,|
zF,,-|F,,2-(5:3F,,|zF,,-|F,,2-F,,|
zF,,-|F,,2-(5:3F,,|zF,,-|F,,2-F,,|
zF,,-|F,,2-(5:3F,,|zF,,-|F,,2-F,,|
zF,,-|F,,2-(5:3F,,|zF,,-|F,,2-F,,|
zF,,-|F,,2-(5:3F,,|zF,,-|F,,3/2-F,,/4(5:3z/2|
zF,,-|F,,2-F,,|zF,,-|F,,2-(5:3F,,|
zF,,-|F,,2-F,,|zF,,-|F,,3/2-(5:4F,,/4


